assets/icons/settings.svg

<svg xmlns="http://www.w3.org/2000/svg" viewBox="0 0 24 24" role="presentation" aria-hidden="true"><path fill-rule="evenodd" clip-rule="evenodd" d="M13.583 4.74314C13.1793 3.08562 10.8205 3.08562 10.4167 4.74314C10.3564 4.99222 10.2382 5.22353 10.0716 5.41828C9.90507 5.61302 9.69488 5.76569 9.45816 5.86386C9.22145 5.96202 8.9649 6.00291 8.7094 5.9832C8.4539 5.96348 8.20666 5.88372 7.9878 5.75041C6.53003 4.86215 4.86188 6.5303 5.75014 7.98807C6.3239 8.92946 5.81496 10.1577 4.74394 10.418C3.08535 10.8207 3.08535 13.1806 4.74394 13.5822C4.99308 13.6426 5.22444 13.7609 5.41918 13.9276C5.61393 14.0943 5.76655 14.3046 5.86462 14.5415C5.96269 14.7783 6.00344 15.035 5.98355 15.2906C5.96365 15.5461 5.88368 15.7934 5.75014 16.0122C4.86188 17.47 6.53003 19.1381 7.9878 18.2499C8.20662 18.1163 8.45388 18.0363 8.70945 18.0165C8.96502 17.9966 9.22168 18.0373 9.45852 18.1354C9.69536 18.2335 9.90569 18.3861 10.0724 18.5808C10.2391 18.7756 10.3574 19.0069 10.4178 19.2561C10.8205 20.9146 13.1803 20.9146 13.582 19.2561C13.6425 19.0071 13.761 18.7758 13.9277 18.5812C14.0944 18.3866 14.3047 18.2341 14.5415 18.1361C14.7783 18.038 15.0348 17.9972 15.2903 18.017C15.5458 18.0368 15.7931 18.1166 16.0119 18.2499C17.4697 19.1381 19.1379 17.47 18.2496 16.0122C18.1163 15.7933 18.0365 15.5461 18.0167 15.2906C17.997 15.0351 18.0378 14.7785 18.1358 14.5418C18.2338 14.305 18.3864 14.0947 18.581 13.928C18.7756 13.7612 19.0068 13.6428 19.2558 13.5822C20.9144 13.1795 20.9144 10.8197 19.2558 10.418C19.0067 10.3577 18.7753 10.2393 18.5806 10.0727C18.3858 9.90596 18.2332 9.69563 18.1351 9.45878C18.037 9.22194 17.9963 8.96529 18.0162 8.70971C18.0361 8.45414 18.1161 8.20688 18.2496 7.98807C19.1379 6.5303 17.4697 4.86215 16.0119 5.75041C15.7931 5.88395 15.5459 5.96392 15.2903 5.98381C15.0347 6.00371 14.7781 5.96296 14.5412 5.86489C14.3044 5.76681 14.094 5.61419 13.9273 5.41945C13.7607 5.2247 13.6423 4.99334 13.582 4.74421L13.583 4.74314ZM11.9999 15.1877C12.8453 15.1877 13.656 14.8519 14.2538 14.2541C14.8516 13.6563 15.1874 12.8455 15.1874 12.0001C15.1874 11.1547 14.8516 10.344 14.2538 9.74619C13.656 9.14841 12.8453 8.81258 11.9999 8.81258C11.1545 8.81258 10.3437 9.14841 9.74593 9.74619C9.14815 10.344 8.81232 11.1547 8.81232 12.0001C8.81232 12.8455 9.14815 13.6563 9.74593 14.2541C10.3437 14.8519 11.1545 15.1877 11.9999 15.1877Z" fill="currentColor"/></svg>

<svg xmlns="http://www.w3.org/2000/svg" aria-hidden="true" viewBox="0 0 24 24"><path fill="currentColor" fill-rule="evenodd" d="M13.583 4.743c-.404-1.657-2.763-1.657-3.166 0a1.628 1.628 0 0 1-2.43 1.007c-1.457-.888-3.125.78-2.237 2.238.574.941.065 2.17-1.006 2.43-1.659.403-1.659 2.763 0 3.164a1.628 1.628 0 0 1 1.006 2.43c-.888 1.458.78 3.126 2.238 2.238a1.626 1.626 0 0 1 2.43 1.006c.402 1.659 2.762 1.659 3.164 0a1.63 1.63 0 0 1 2.43-1.006c1.458.888 3.126-.78 2.238-2.238a1.63 1.63 0 0 1 1.006-2.43c1.658-.402 1.658-2.762 0-3.164a1.628 1.628 0 0 1-1.006-2.43c.888-1.458-.78-3.126-2.238-2.238a1.627 1.627 0 0 1-2.43-1.006zM12 15.188a3.187 3.187 0 1 0 0-6.375 3.187 3.187 0 0 0 0 6.375" clip-rule="evenodd"/></svg>
